X:837
T:Peg McGrath's
T:Micho Russell's
R:reel
D:Paul McGrattan & Paul O'Shaughnessy: Within a Mile of Dublin
D:Catherine McEvoy
Z:id:hn-reel-837
M:C|
K:G
~B3G ABAG | FDAD BDAF | DGGF G2ge | fddc ABcA |
~B3G ABAG | FDAD BDAF | DGGF G2ge | fdcA BGG2 :|
|: dggf g2ag | fdde fdcA | dggf g2fg | a2ga bgga |
bggf gbag | fdde ~f3g | a2ag a2ga | fddc ABcA :|

